source/img/icons/region-icon.svg

<svg fill="none" height="16" viewBox="0 0 16 16" width="16" xmlns="http://www.w3.org/2000/svg"><path d="m12.9059 3.09459c-.0925-.09264-.2317-.12013-.3523-.06956l-10.35596 4.34122c-.12884.054-.20821.18503-.1965.32437s.11183.25524.24787.28694l4.51203 1.05117c.08717.02031.15532.0882.17599.1753l1.07896 4.54807c.03218.1357.1479.2353.28676.2468.00892.0007.01779.0011.02662.0011.12867 0 .24618-.0771.29669-.1974l4.34874-10.35529c.0507-.12069.0235-.26008-.0689-.35272z" fill="#888"/></svg>

<svg width="16" height="16" viewBox="0 0 16 16" fill="none" xmlns="http://www.w3.org/2000/svg">
<path d="M12.9059 3.09459C12.8134 3.00195 12.6742 2.97446 12.5536 3.02503L2.19764 7.36625C2.0688 7.42025 1.98943 7.55128 2.00114 7.69062C2.01285 7.82996 2.11297 7.94586 2.24901 7.97756L6.76104 9.02873C6.84821 9.04904 6.91636 9.11693 6.93703 9.20403L8.01599 13.7521C8.04817 13.8878 8.16389 13.9874 8.30275 13.9989C8.31167 13.9996 8.32054 14 8.32937 14C8.45804 14 8.57555 13.9229 8.62606 13.8026L12.9748 3.44731C13.0255 3.32662 12.9983 3.18723 12.9059 3.09459Z" fill="#888888"/>
</svg>
